svg/power-off.svg

<?xml version="1.0" encoding="UTF-8"?>
<svg xmlns="http://www.w3.org/2000/svg" xmlns:xlink="http://www.w3.org/1999/xlink" width="32" height="32" viewBox="0 0 32 32">
<path fill-rule="nonzero" fill="rgb(0%, 0%, 0%)" fill-opacity="1" d="M 16 3 C 8.820312 3 3 8.820312 3 16 C 3 23.179688 8.820312 29 16 29 C 23.179688 29 29 23.179688 29 16 C 29 8.820312 23.179688 3 16 3 M 16 7 C 16.816406 7 17.25 7.175781 17.25 7.175781 L 17 14.5 L 15 14.5 L 14.75 7.175781 C 14.75 7.175781 15.183594 7 16 7 M 21.71875 21.570312 C 20.203125 23.09375 18.148438 23.957031 16 23.976562 C 13.851562 23.957031 11.796875 23.09375 10.28125 21.570312 C 8.789062 20.042969 7.96875 17.984375 8 15.851562 C 8.035156 13.742188 8.898438 11.730469 10.40625 10.253906 C 10.882812 9.78125 11.417969 9.375 12 9.039062 L 12.585938 11.105469 C 12.328125 11.289062 12.089844 11.492188 11.871094 11.71875 C 10.804688 12.828125 10.21875 14.3125 10.25 15.851562 C 10.28125 17.363281 10.910156 18.800781 11.996094 19.855469 C 13.066406 20.902344 14.503906 21.484375 16 21.476562 C 17.496094 21.484375 18.933594 20.902344 20.003906 19.855469 C 21.089844 18.800781 21.71875 17.363281 21.75 15.851562 C 21.78125 14.3125 21.195312 12.828125 20.128906 11.71875 C 19.910156 11.492188 19.671875 11.289062 19.414062 11.105469 L 20 9.039062 C 20.582031 9.375 21.117188 9.78125 21.59375 10.253906 C 23.101562 11.730469 23.964844 13.742188 24 15.851562 C 24.03125 17.984375 23.210938 20.042969 21.71875 21.570312 M 21.71875 21.570312 "/>
</svg>

<svg role="img" viewBox="0 0 32 32" height="32" width="32" xmlns="http://www.w3.org/2000/svg"><path d="M16 3C8.82 3 3 8.82 3 16s5.82 13 13 13 13-5.82 13-13S23.18 3 16 3m0 4c.816 0 1.25.176 1.25.176L17 14.5h-2l-.25-7.324S15.184 7 16 7m5.719 14.57A8.17 8.17 0 0 1 16 23.977a8.17 8.17 0 0 1-5.719-2.407A8.015 8.015 0 0 1 8 15.852a8.02 8.02 0 0 1 2.406-5.598A7.785 7.785 0 0 1 12 9.039l.586 2.066a5.338 5.338 0 0 0-.715.614 5.794 5.794 0 0 0-1.621 4.133 5.749 5.749 0 0 0 1.746 4.003A5.682 5.682 0 0 0 16 21.477a5.682 5.682 0 0 0 4.004-1.622 5.749 5.749 0 0 0 1.746-4.003 5.794 5.794 0 0 0-1.621-4.133 5.338 5.338 0 0 0-.715-.614L20 9.04a7.785 7.785 0 0 1 1.594 1.215A8.02 8.02 0 0 1 24 15.852a8.015 8.015 0 0 1-2.281 5.718m0 0"/></svg>
